src/assets/svgs/logo.svg

<svg width="166" height="59" viewBox="0 0 166 59" fill="none" xmlns="http://www.w3.org/2000/svg">
<path d="M54.2237 51.2667C53.513 51.2667 52.8327 51.1671 52.1827 50.9677C51.5327 50.7597 51.017 50.4954 50.6357 50.1747L51.2207 48.8617C51.5847 49.1477 52.0353 49.3861 52.5727 49.5767C53.11 49.7674 53.6603 49.8627 54.2237 49.8627C54.7003 49.8627 55.086 49.8107 55.3807 49.7067C55.6753 49.6027 55.892 49.4641 56.0307 49.2907C56.1693 49.1087 56.2387 48.9051 56.2387 48.6797C56.2387 48.4024 56.139 48.1814 55.9397 48.0167C55.7403 47.8434 55.4803 47.7091 55.1597 47.6137C54.8477 47.5097 54.4967 47.4144 54.1067 47.3277C53.7253 47.2411 53.3397 47.1414 52.9497 47.0287C52.5683 46.9074 52.2173 46.7557 51.8967 46.5737C51.5847 46.3831 51.329 46.1317 51.1297 45.8197C50.9303 45.5077 50.8307 45.1091 50.8307 44.6237C50.8307 44.1297 50.9607 43.6791 51.2207 43.2717C51.4893 42.8557 51.8923 42.5264 52.4297 42.2837C52.9757 42.0324 53.6647 41.9067 54.4967 41.9067C55.0427 41.9067 55.5843 41.9761 56.1217 42.1147C56.659 42.2534 57.127 42.4527 57.5257 42.7127L56.9927 44.0257C56.5853 43.7831 56.165 43.6054 55.7317 43.4927C55.2983 43.3714 54.8823 43.3107 54.4837 43.3107C54.0157 43.3107 53.6343 43.3671 53.3397 43.4797C53.0537 43.5924 52.8413 43.7397 52.7027 43.9217C52.5727 44.1037 52.5077 44.3117 52.5077 44.5457C52.5077 44.8231 52.603 45.0484 52.7937 45.2217C52.993 45.3864 53.2487 45.5164 53.5607 45.6117C53.8813 45.7071 54.2367 45.8024 54.6267 45.8977C55.0167 45.9844 55.4023 46.0841 55.7837 46.1967C56.1737 46.3094 56.5247 46.4567 56.8367 46.6387C57.1573 46.8207 57.413 47.0677 57.6037 47.3797C57.803 47.6917 57.9027 48.0861 57.9027 48.5627C57.9027 49.0481 57.7683 49.4987 57.4997 49.9147C57.2397 50.3221 56.8367 50.6514 56.2907 50.9027C55.7447 51.1454 55.0557 51.2667 54.2237 51.2667ZM61.5575 51.1367V43.4667H58.5415V42.0367H66.2635V43.4667H63.2475V51.1367H61.5575ZM66.0478 51.1367L70.1428 42.0367H71.8068L75.9148 51.1367H74.1468L70.6238 42.9337H71.2998L67.7898 51.1367H66.0478ZM67.9328 49.0307L68.3878 47.7047H73.3018L73.7568 49.0307H67.9328ZM78.8401 48.9917L78.7491 46.9897L83.5201 42.0367H85.4181L81.4531 46.2487L80.5171 47.2757L78.8401 48.9917ZM77.3321 51.1367V42.0367H79.0221V51.1367H77.3321ZM83.6761 51.1367L80.1921 46.9897L81.3101 45.7547L85.6521 51.1367H83.6761ZM87.0628 51.1367V42.0367H88.7528V51.1367H87.0628ZM91.4741 51.1367V42.0367H92.8651L98.5721 49.0437H97.8831V42.0367H99.5601V51.1367H98.1691L92.4621 44.1297H93.1511V51.1367H91.4741ZM106.51 51.2667C105.799 51.2667 105.145 51.1541 104.547 50.9287C103.957 50.6947 103.442 50.3697 103 49.9537C102.558 49.5291 102.215 49.0307 101.973 48.4587C101.73 47.8867 101.609 47.2627 101.609 46.5867C101.609 45.9107 101.73 45.2867 101.973 44.7147C102.215 44.1427 102.558 43.6487 103 43.2327C103.45 42.8081 103.975 42.4831 104.573 42.2577C105.171 42.0237 105.825 41.9067 106.536 41.9067C107.307 41.9067 108 42.0324 108.616 42.2837C109.24 42.5351 109.764 42.9034 110.189 43.3887L109.123 44.4287C108.767 44.0734 108.382 43.8134 107.966 43.6487C107.558 43.4754 107.108 43.3887 106.614 43.3887C106.137 43.3887 105.695 43.4667 105.288 43.6227C104.88 43.7787 104.529 43.9997 104.235 44.2857C103.94 44.5717 103.71 44.9097 103.546 45.2997C103.39 45.6897 103.312 46.1187 103.312 46.5867C103.312 47.0461 103.39 47.4707 103.546 47.8607C103.71 48.2507 103.94 48.5931 104.235 48.8877C104.529 49.1737 104.876 49.3947 105.275 49.5507C105.673 49.7067 106.115 49.7847 106.601 49.7847C107.051 49.7847 107.485 49.7154 107.901 49.5767C108.325 49.4294 108.728 49.1867 109.11 48.8487L110.072 50.1097C109.595 50.4911 109.04 50.7814 108.408 50.9807C107.784 51.1714 107.151 51.2667 106.51 51.2667ZM108.473 49.8887V46.4827H110.072V50.1097L108.473 49.8887Z" fill="#00D0C6"/>
<path d="M53.9315 26.981H65.3956V30.3704H48L59.7134 9.8844H49.8941V6.495H65.6449L53.9315 26.981Z" fill="white"/>
<path d="M73.1713 6.495V30.3704H69.5825V6.495H73.1713Z" fill="white"/>
<path d="M82.4921 6.495V26.981H89.5201V30.3704H78.9033V6.495H82.4921Z" fill="white"/>
<path d="M96.5483 6.495V26.981H103.576V30.3704H92.9595V6.495H96.5483Z" fill="white"/>
<path d="M110.555 6.495V30.3704H106.966V6.495H110.555Z" fill="white"/>
<path d="M140.611 30.8185H136.075L134.181 28.8746C132.237 30.1705 129.894 30.8185 127.551 30.8185C124.461 30.8185 121.421 29.6721 119.128 27.5786C116.486 25.3356 115.041 21.9961 115.14 18.5568C115.041 15.1674 116.436 11.8777 118.928 9.535C121.271 7.29201 124.361 6.0459 127.601 6.0459C130.592 6.0459 133.483 7.14247 135.726 9.13624C138.617 11.5786 140.062 14.7686 140.062 18.7063C140.062 21.7967 138.816 24.7375 136.673 26.9306L140.611 30.8185ZM130.692 20.8995L134.131 24.3886C135.676 22.7936 136.474 20.6503 136.424 18.4571C136.474 16.0646 135.576 13.7219 133.882 12.0272C130.393 8.58796 124.71 8.58796 121.221 12.0272C119.576 13.7718 118.679 16.1144 118.729 18.5568C118.679 20.9493 119.626 23.2422 121.321 24.887C122.916 26.482 125.109 27.4291 127.402 27.4291C128.897 27.4789 130.343 27.0802 131.639 26.3823L126.056 20.8995H130.692Z" fill="white"/>
<path d="M158.605 24.5888H148.387L145.745 30.3707H141.857L153.67 5L165.035 30.3707H161.097L158.605 24.5888ZM157.159 21.1994L153.62 13.0748L149.882 21.1994H157.159Z" fill="white"/>
<path d="M27.0654 22.928L8.47352 32.0993L27.0654 40.9218V47.9997L0 35.1897V28.1617L18.8411 18.9405L0 10.0184V2.89062L27.0654 15.7504V22.928Z" fill="url(#paint0_linear_2608_1546)"/>
<path d="M0 2.89097L7.17757 0L34.243 12.81L27.0654 15.7508L0 2.89097Z" fill="url(#paint1_linear_2608_1546)"/>
<path d="M27.0654 22.9279L34.243 20.037V12.8096L27.0654 15.7504V22.9279Z" fill="url(#paint2_linear_2608_1546)"/>
<path d="M27.0654 40.9221V26.7165L34.243 23.4268V45.109L27.0654 48V40.9221Z" fill="url(#paint3_linear_2608_1546)"/>
<defs>
<linearGradient id="paint0_linear_2608_1546" x1="27.0754" y1="48.2888" x2="4.481" y2="10.2227" gradientUnits="userSpaceOnUse">
<stop stop-color="white"/>
<stop offset="0.22" stop-color="white" stop-opacity="0.96"/>
<stop offset="0.59" stop-color="white" stop-opacity="0.85"/>
<stop offset="1" stop-color="white" stop-opacity="0.7"/>
</linearGradient>
<linearGradient id="paint1_linear_2608_1546" x1="-2.60685" y1="0.807477" x2="29.6025" y2="12.3514" gradientUnits="userSpaceOnUse">
<stop stop-color="white"/>
<stop offset="0.22" stop-color="white" stop-opacity="0.96"/>
<stop offset="0.59" stop-color="white" stop-opacity="0.85"/>
<stop offset="1" stop-color="white" stop-opacity="0.7"/>
</linearGradient>
<linearGradient id="paint2_linear_2608_1546" x1="31.5066" y1="6.3348" x2="30.3551" y2="21.9261" gradientUnits="userSpaceOnUse">
<stop stop-color="white"/>
<stop offset="0.22" stop-color="white" stop-opacity="0.96"/>
<stop offset="0.59" stop-color="white" stop-opacity="0.85"/>
<stop offset="1" stop-color="white" stop-opacity="0.7"/>
</linearGradient>
<linearGradient id="paint3_linear_2608_1546" x1="30.5645" y1="21.8666" x2="30.729" y2="47.9402" gradientUnits="userSpaceOnUse">
<stop stop-color="white"/>
<stop offset="0.22" stop-color="white" stop-opacity="0.96"/>
<stop offset="0.59" stop-color="white" stop-opacity="0.85"/>
<stop offset="1" stop-color="white" stop-opacity="0.7"/>
</linearGradient>
</defs>
</svg>

<svg xmlns="http://www.w3.org/2000/svg" width="166" height="59" fill="none" viewBox="0 0 166 59"><path fill="#00D0C6" d="M54.224 51.267q-1.066 0-2.041-.3-.975-.311-1.547-.792l.585-1.313q.546.429 1.352.715.806.285 1.65.286.715 0 1.158-.156.441-.156.65-.416a1 1 0 0 0 .208-.611q0-.417-.3-.663-.299-.26-.78-.403-.467-.157-1.052-.286a21 21 0 0 1-1.157-.3 5.5 5.5 0 0 1-1.053-.454 2.36 2.36 0 0 1-.767-.754q-.3-.468-.3-1.196 0-.741.39-1.352.404-.625 1.21-.988.819-.378 2.067-.377.819 0 1.625.208a4.7 4.7 0 0 1 1.404.598l-.533 1.313a4.8 4.8 0 0 0-1.261-.533 4.6 4.6 0 0 0-1.248-.182q-.703 0-1.144.169-.43.169-.637.442-.195.273-.195.624a.87.87 0 0 0 .286.676q.299.246.767.39.48.142 1.066.286.584.13 1.157.299.584.169 1.053.442.48.273.767.74.299.469.299 1.184 0 .728-.403 1.352-.39.61-1.21.988-.818.363-2.066.364m7.334-.13v-7.67H58.54v-1.43h7.722v1.43h-3.016v7.67zm4.49 0 4.095-9.1h1.664l4.108 9.1h-1.768l-3.523-8.203h.676l-3.51 8.203zm1.885-2.106.455-1.326h4.914l.455 1.326zm10.907-.04-.09-2.001 4.77-4.953h1.898l-3.965 4.212-.936 1.027zm-1.508 2.146v-9.1h1.69v9.1zm6.344 0-3.484-4.147 1.118-1.235 4.342 5.382zm3.387 0v-9.1h1.69v9.1zm4.411 0v-9.1h1.391l5.707 7.007h-.689v-7.007h1.677v9.1h-1.39l-5.708-7.007h.69v7.007zm15.036.13a5.5 5.5 0 0 1-1.963-.338 4.8 4.8 0 0 1-1.547-.975 4.5 4.5 0 0 1-1.027-1.495 4.7 4.7 0 0 1-.364-1.872q0-1.014.364-1.872A4.3 4.3 0 0 1 103 43.233q.675-.637 1.573-.975a5.3 5.3 0 0 1 1.963-.351q1.156 0 2.08.377.936.377 1.573 1.105l-1.066 1.04a3.4 3.4 0 0 0-1.157-.78 3.4 3.4 0 0 0-1.352-.26q-.715 0-1.326.234a3.1 3.1 0 0 0-1.053.663 3 3 0 0 0-.689 1.014q-.234.585-.234 1.287 0 .69.234 1.274.246.585.689 1.027.441.429 1.04.663.597.234 1.326.234.675 0 1.3-.208.636-.222 1.209-.728l.962 1.26a5.1 5.1 0 0 1-1.664.872 6.5 6.5 0 0 1-1.898.286m1.963-1.378v-3.406h1.599v3.627z"/><path fill="#fff" d="M53.932 26.981h11.464v3.39H48L59.713 9.883h-9.819V6.495h15.75zM73.171 6.495V30.37h-3.589V6.495zm9.321 0v20.486h7.028v3.39H78.903V6.494zm14.056 0v20.486h7.028v3.39H92.96V6.494zm14.007 0V30.37h-3.589V6.495zm30.056 24.324h-4.536l-1.894-1.944c-1.944 1.296-4.287 1.944-6.63 1.944-3.09 0-6.13-1.147-8.423-3.24-2.642-2.243-4.087-5.583-3.988-9.022-.099-3.39 1.296-6.68 3.788-9.022a12.5 12.5 0 0 1 8.673-3.49c2.991 0 5.882 1.097 8.125 3.091q4.336 3.665 4.336 9.57c0 3.09-1.246 6.032-3.389 8.225zm-9.919-9.92 3.439 3.49c1.545-1.595 2.343-3.739 2.293-5.932.05-2.392-.848-4.735-2.542-6.43-3.489-3.439-9.172-3.439-12.661 0a9.23 9.23 0 0 0-2.492 6.53 8.57 8.57 0 0 0 2.592 6.33c1.595 1.595 3.788 2.542 6.081 2.542 1.495.05 2.941-.349 4.237-1.047l-5.583-5.483zm27.913 3.69h-10.218l-2.642 5.782h-3.888L153.67 5l11.365 25.37h-3.938zm-1.446-3.39-3.539-8.124-3.738 8.124z"/><path fill="url(#a)" d="M27.065 22.928 8.474 32.099l18.591 8.823V48L0 35.19v-7.028l18.841-9.221L0 10.018V2.891l27.065 12.86z"/><path fill="url(#b)" d="M0 2.891 7.178 0l27.065 12.81-7.178 2.94z"/><path fill="url(#c)" d="m27.065 22.928 7.178-2.891V12.81l-7.178 2.94z"/><path fill="url(#d)" d="M27.065 40.922V26.717l7.178-3.29v21.682L27.065 48z"/><defs><linearGradient id="a" x1="27.075" x2="4.481" y1="48.289" y2="10.223" gradientUnits="userSpaceOnUse"><stop stop-color="#fff"/><stop offset=".22" stop-color="#fff" stop-opacity=".96"/><stop offset=".59" stop-color="#fff" stop-opacity=".85"/><stop offset="1" stop-color="#fff" stop-opacity=".7"/></linearGradient><linearGradient id="b" x1="-2.607" x2="29.602" y1=".807" y2="12.351" gradientUnits="userSpaceOnUse"><stop stop-color="#fff"/><stop offset=".22" stop-color="#fff" stop-opacity=".96"/><stop offset=".59" stop-color="#fff" stop-opacity=".85"/><stop offset="1" stop-color="#fff" stop-opacity=".7"/></linearGradient><linearGradient id="c" x1="31.507" x2="30.355" y1="6.335" y2="21.926" gradientUnits="userSpaceOnUse"><stop stop-color="#fff"/><stop offset=".22" stop-color="#fff" stop-opacity=".96"/><stop offset=".59" stop-color="#fff" stop-opacity=".85"/><stop offset="1" stop-color="#fff" stop-opacity=".7"/></linearGradient><linearGradient id="d" x1="30.564" x2="30.729" y1="21.867" y2="47.94" gradientUnits="userSpaceOnUse"><stop stop-color="#fff"/><stop offset=".22" stop-color="#fff" stop-opacity=".96"/><stop offset=".59" stop-color="#fff" stop-opacity=".85"/><stop offset="1" stop-color="#fff" stop-opacity=".7"/></linearGradient></defs></svg>
